!!!COM: Music21
!!!OTL: Pasodoble dos Coutos
!!!OMV: pezas_pasodobles_pasodoble-dos-coutos_pasodoble-dos-coutos-partitura.musicxml
**kern
*I"Bagpipes
*I'Bag
*clefG^2
*k[]
*M2/4
=1
!LO:TX:a:t=Allegretto
*MM120
!LO:TX:a:t=[quarter]=120
4.r
8cc
=||
8eeL
8eeJ
8eeL
8ddJ
=
4.cc
8cc
=
8ffL
8ffJ
8ffL
8eeJ
=
4.dd
8dd
=
8ggL
8ggJ
8ggL
8ggJ
=
8aaL
8ggJ
8ggL
8ffJ
=
8ffL
8eeJ
8eeL
8ddJ
=
4.cc
8cc
=||
8eeL
8eeJ
8eeL
8ddJ
!!linebreak:original
=
4.cc
8cc
=
8ffL
8ffJ
8ffL
8eeJ
=
4.dd
8dd
=
8ggL
8ggJ
8ggL
8ggJ
=
8aaL
8ggJ
8ggL
8ffJ
=
8ffL
8eeJ
8eeL
8ddJ
=
[2cc
=
8ccL]
8ccJ
8ddL
8eeJ
!!linebreak:original
=||
4.ff
8dd
=
8ggL
8ggJ
8ggL
8ggJ
=
8ff
4ee
8cc
=
8ffL
8ffJ
8ffL
8ffJ
=
8ee
4dd
8b
=
8eeL
8eeJ
8eeL
8eeJ
=
8dd
[4.cc
=
8ccL]
8ccJ
8ddL
8eeJ
!!linebreak:original
=||
4.ff
8dd
=
8ggL
8ggJ
8ggL
8ggJ
=
8ff
4ee
8cc
=
8ffL
8ffJ
8ffL
8ffJ
=
8ee
4dd
8b
=||
8eeL
8eeJ
8eeL
8ddJ
=
4.cc
8cc
!!linebreak:original
=||
8eeL
8eeJ
8eeL
8ddJ
=
8cc
4.r
==
*-
